logos/cakephp.svg

<?xml version="1.0" encoding="UTF-8"?>
<svg width="512px" height="103px" viewBox="0 0 512 103" version="1.1" xmlns="http://www.w3.org/2000/svg" xmlns:xlink="http://www.w3.org/1999/xlink" preserveAspectRatio="xMidYMid">
    <title>Group</title>
    <g stroke="none" stroke-width="1" fill="none" fill-rule="evenodd">
        <g fill="#D33C44">
            <path d="M0,61.5314283 C0,72.8519477 29.4067531,82.0405191 65.6872724,82.0405191 L65.6872724,82.0405191 L65.6872724,102.541298 C29.4067531,102.541298 0,93.3610385 0,82.0405191 L0,82.0405191 Z M131.395326,61.5314283 L131.395326,82.0363632 C131.395326,86.8696099 126.021818,91.3038956 117.074285,94.8114281 L117.074285,94.8114281 L65.6831165,82.0363632 L65.6831165,61.5314283 L117.074285,74.3023373 C126.021818,70.7989607 131.39948,66.364675 131.395326,61.5314283 L131.395326,61.5314283 Z M65.6872724,0 C101.971948,0 131.395324,9.19688307 131.395324,20.5090908 L131.395324,20.5090908 L131.395324,41.0306491 C131.395324,45.8472725 126.021818,50.2981816 117.078441,53.7890906 L117.078441,53.7890906 L65.6872724,41.0306491 L65.6872724,61.5314283 C29.4067531,61.5314283 0,52.3470127 0,41.0306491 L0,41.0306491 L0,20.5090908 C0,9.19688307 29.4067531,0 65.6872724,0 Z"></path>
            <path d="M188.243116,23.783896 C198.520518,23.783896 204.679479,27.2166232 209.737142,32.1953245 L202.107012,40.9932465 C197.901298,37.1781816 193.616622,34.8425972 188.168311,34.8425972 C178.975583,34.8425972 172.363635,42.4727271 172.363635,51.8150647 L172.363635,51.9771426 C172.363635,61.3194802 178.821817,69.1075321 188.168311,69.1075321 C194.397921,69.1075321 198.20883,66.6181815 202.48935,62.7199997 L210.119479,70.4249347 C204.521557,76.4259736 198.291947,80.1662334 187.781817,80.1662334 C171.736103,80.1662334 159.825454,67.7818178 159.825454,52.126753 L159.825454,51.9771426 C159.825454,36.4841557 171.503376,23.783896 188.243116,23.783896 Z M327.297661,36.7085712 C341.236362,36.7085712 347.623894,47.5345452 347.623894,59.3745451 L347.623894,59.5283114 C347.623894,60.6961036 347.549089,61.3984412 347.470128,62.4914282 L318.424933,62.4914282 C319.58857,67.8607789 323.32883,70.6618178 328.627531,70.6618178 C332.600518,70.6618178 335.476362,69.4109087 338.747011,66.3771425 L345.529349,72.3781814 C341.627011,77.2072723 336.020777,80.1662334 328.469609,80.1662334 C315.931427,80.1662334 306.655583,71.3683113 306.655583,58.5974023 L306.655583,58.4353244 C306.655583,46.5205192 315.150128,36.7085712 327.297661,36.7085712 Z M235.740259,37.0202595 C248.66909,37.0202595 254.35844,43.7153245 254.35844,55.0150647 L254.35844,79.2270126 L242.900778,79.2270126 L242.900778,74.7137658 C240.024934,77.9054541 236.056103,80.0083113 230.287791,80.0083113 C222.42909,80.0083113 215.962596,75.4909087 215.962596,67.2374023 L215.962596,67.0753243 C215.962596,57.9615581 222.890388,53.7558439 232.777142,53.7558439 C236.987012,53.7558439 240.024934,54.4581815 242.988051,55.4680517 L242.988051,54.7740257 C242.988051,49.8742855 239.950129,47.1438959 234.028051,47.1438959 C229.514804,47.1438959 226.323116,48.0041556 222.508051,49.4005192 L219.544934,40.3698699 C224.141298,38.3376621 228.6587,37.0202595 235.740259,37.0202595 Z M276.384414,22.3750648 L276.384414,52.6794802 L290.252466,37.4898699 L304.419739,37.4898699 L288.536102,53.913766 L304.964154,79.2270126 L291.420258,79.2270126 L280.515323,62.1755841 L276.384414,66.5350646 L276.384414,79.2270126 L264.556882,79.2270126 L264.556882,22.3750648 L276.384414,22.3750648 Z M379.943894,24.7148051 C392.943375,24.7148051 400.810388,32.4238959 400.810388,43.5698699 L400.810388,43.7194803 C400.806232,56.3324672 390.994284,62.8737659 378.76779,62.8737659 L369.666492,62.8737659 L369.666492,79.2270126 L357.672725,79.2270126 L357.672725,24.7148051 L379.943894,24.7148051 Z M421.672725,24.7148051 L421.672725,46.287792 L443.790128,46.287792 L443.790128,24.7148051 L455.779738,24.7148051 L455.779738,79.2270126 L443.790128,79.2270126 L443.790128,57.3340257 L421.672725,57.3340257 L421.672725,79.2270126 L409.683115,79.2270126 L409.683115,24.7148051 L421.672725,24.7148051 Z M491.129348,24.7148051 C504.128829,24.7148051 511.999999,32.4238959 511.999999,43.5698699 L511.999999,43.7194803 C512.004153,56.3324672 502.192205,62.8737659 489.969868,62.8737659 L480.851946,62.8737659 L480.851946,79.2270126 L468.858179,79.2270126 L468.858179,24.7148051 L491.129348,24.7148051 Z M235.590648,60.8498698 C230.52883,60.8498698 227.407791,62.8737659 227.407791,66.6140256 L227.407791,66.7677919 C227.407791,69.9553243 230.05922,71.8254542 233.870129,71.8254542 C239.397401,71.8254542 243.141817,68.7999996 243.141817,64.5070127 L243.141817,62.4083114 C241.122077,61.4649347 238.466492,60.8498698 235.590648,60.8498698 Z M327.301816,46.2129868 C322.39792,46.2129868 319.19792,49.7163634 318.267011,55.085714 L336.103894,55.085714 C335.397401,49.7870127 332.284674,46.2129868 327.301816,46.2129868 Z M378.925712,35.5449349 L369.662336,35.5449349 L369.662336,52.2181815 L379.162595,52.2181815 C385.155323,52.2181815 388.658699,48.6233764 388.658699,43.9605193 L388.658699,43.7942855 C388.658699,38.4249349 384.926751,35.5449349 378.925712,35.5449349 Z M490.119478,35.5449349 L480.851946,35.5449349 L480.851946,52.2181815 L490.348049,52.2181815 C496.349088,52.2181815 499.852465,48.6233764 499.852465,43.9605193 L499.852465,43.7942855 C499.852465,38.4249349 496.116361,35.5449349 490.119478,35.5449349 Z"></path>
        </g>
    </g>
</svg>

<svg width="512" height="103" xmlns="http://www.w3.org/2000/svg" preserveAspectRatio="xMidYMid">
	<g fill="#D33C44" fill-rule="evenodd">
		<path d="M0 61.531c0 11.32 29.407 20.51 65.687 20.51v20.5c-36.28 0-65.687-9.18-65.687-20.5Zm131.395 0v20.505c0 4.834-5.373 9.268-14.32 12.775L65.682 82.036V61.531l51.391 12.771c8.948-3.503 14.325-7.937 14.321-12.77ZM65.687 0c36.285 0 65.708 9.197 65.708 20.51v20.52c0 4.817-5.373 9.268-14.317 12.76l-51.39-12.76v20.501C29.406 61.531 0 52.347 0 41.031V20.509C0 9.197 29.407 0 65.687 0Z"/>
		<path d="M188.243 23.784c10.278 0 16.436 3.433 21.494 8.411l-7.63 8.798c-4.206-3.815-8.49-6.15-13.939-6.15-9.192 0-15.804 7.63-15.804 16.972v.162c0 9.342 6.458 17.13 15.804 17.13 6.23 0 10.04-2.489 14.321-6.387l7.63 7.705c-5.597 6.001-11.827 9.741-22.337 9.741-16.046 0-27.957-12.384-27.957-28.04v-.149c0-15.493 11.678-28.193 28.418-28.193Zm139.055 12.925c13.938 0 20.326 10.826 20.326 22.666v.153c0 1.168-.075 1.87-.154 2.963h-29.045c1.164 5.37 4.904 8.17 10.203 8.17 3.973 0 6.848-1.25 10.119-4.284l6.782 6.001c-3.902 4.83-9.508 7.788-17.06 7.788-12.538 0-21.813-8.798-21.813-21.569v-.162c0-11.914 8.494-21.726 20.642-21.726Zm-91.558.311c12.93 0 18.618 6.695 18.618 17.995v24.212h-11.457v-4.513c-2.876 3.191-6.845 5.294-12.613 5.294-7.859 0-14.325-4.517-14.325-12.77v-.163c0-9.113 6.927-13.32 16.814-13.32 4.21 0 7.248.703 10.211 1.713v-.694c0-4.9-3.038-7.63-8.96-7.63-4.513 0-7.705.86-11.52 2.257l-2.963-9.031c4.596-2.032 9.114-3.35 16.195-3.35Zm40.644-14.645V52.68l13.868-15.19h14.168l-15.884 16.425 16.428 25.313H291.42l-10.905-17.051-4.13 4.36v12.691h-11.828V22.375h11.827Zm103.56 2.34c13 0 20.866 7.709 20.866 18.855v.15c-.004 12.612-9.816 19.154-22.042 19.154h-9.102v16.353h-11.993V24.715h22.27Zm41.729 0v21.573h22.117V24.715h11.99v54.512h-11.99V57.334h-22.117v21.893h-11.99V24.715h11.99Zm69.456 0c13 0 20.871 7.709 20.871 18.855v.15c.004 12.612-9.808 19.154-22.03 19.154h-9.118v16.353h-11.994V24.715h22.271ZM235.591 60.85c-5.062 0-8.183 2.024-8.183 5.764v.154c0 3.187 2.651 5.057 6.462 5.057 5.527 0 9.272-3.025 9.272-7.318v-2.099c-2.02-.943-4.676-1.558-7.551-1.558Zm91.71-14.637c-4.903 0-8.103 3.503-9.034 8.873h17.837c-.707-5.299-3.82-8.873-8.802-8.873Zm51.625-10.668h-9.264v16.673h9.5c5.993 0 9.497-3.595 9.497-8.257v-.167c0-5.37-3.732-8.25-9.733-8.25Zm111.193 0h-9.267v16.673h9.496c6.001 0 9.504-3.595 9.504-8.257v-.167c0-5.37-3.736-8.25-9.733-8.25Z"/>
	</g>
</svg>
